icon-themes/sifr_svg/cmd/sc_halfsphere.svg

<svg viewBox="0 0 16 16" xmlns="http://www.w3.org/2000/svg"><path d="m8 2a8 4.5 0 0 0 -8 4.5 8 8.5 0 0 0 8 8.5 8 8.5 0 0 0 8-8.5 8 4.5 0 0 0 -8-4.5z" fill="#565653" fill-opacity=".35"/><path d="m8 2c-4.418278 0-8 1.790861-8 4v.5c0 4.69442 3.581722 8.5 8 8.5s8-3.80558 8-8.5v-.5c0-2.209139-3.581722-4-8-4zm0 2c1.9051414 0 3.606933.4593195 4.675781 1.0605469.747969.4207325 1.084065.8132305 1.226563 1.1113281-.125777.1873345-.417263.5055065-1.140625.8671875-1.083756.5418776-2.8228001.9609375-4.761719.9609375s-3.6779634-.4190599-4.7617188-.9609375c-.723362-.361681-1.0148477-.679853-1.140625-.8671875.1424981-.2980976.4785935-.6905956 1.2265626-1.1113281 1.0688487-.6012274 2.7706398-1.0605469 4.6757812-1.0605469zm5.59375 4.8535156c-.872944 2.4595774-3.069076 4.1464844-5.59375 4.1464844-2.5226879 0-4.7174493-1.684204-5.5917969-4.140625 1.4943024.7308886 3.5014066 1.1403014 5.5917969 1.140625 2.092722-.00163 4.100847-.4132149 5.59375-1.1464844z" fill="#555753"/></svg>

<svg xmlns="http://www.w3.org/2000/svg" viewBox="0 0 16 16">
  <path
     style="fill:#565653;fill-opacity:0.35"
     d="M 8,2 A 8,4.5 0 0 0 0,6.5 8,8.5 0 0 0 8,15 8,8.5 0 0 0 16,6.5 8,4.5 0 0 0 8,2 Z"
     />
  <path
     style="fill:#555753"
     d="M 8,2 C 3.581722,2 0,3.790861 0,6 v 0.5 c 0,4.69442 3.581722,8.5 8,8.5 4.418278,0 8,-3.80558 8,-8.5 V 6 C 16,3.790861 12.418278,2 8,2 Z m 0,2 c 1.9051414,0 3.606933,0.4593195 4.675781,1.0605469 0.747969,0.4207325 1.084065,0.8132305 1.226563,1.1113281 C 13.776567,6.3592095 13.485081,6.6773815 12.761719,7.0390625 11.677963,7.5809401 9.9389189,8 8,8 6.0610811,8 4.3220366,7.5809401 3.2382812,7.0390625 2.5149192,6.6773815 2.2234335,6.3592095 2.0976562,6.171875 2.2401543,5.8737774 2.5762497,5.4812794 3.3242188,5.0605469 4.3930675,4.4593195 6.0948586,4 8,4 Z m 5.59375,4.8535156 C 12.720806,11.313093 10.524674,13 8,13 5.4773121,13 3.2825507,11.315796 2.4082031,8.859375 3.9025055,9.5902636 5.9096097,9.9996764 8,10 10.092722,9.99837 12.100847,9.5867851 13.59375,8.8535156 Z"
     />
</svg>
